X:780
T: Newpuck
T: R\'il Newpuck
S: B.Breathnach:"Ceol Rince na hEireann" IV/156
Z: B.Black
L: 1/8
M: 4/4
R: reel
K: D
FD (3DDD FAAc|BEGE BEGE|FD (3DDD FAAc|(3Bcd eg fd d2 :|
g2 bg f2 af|egfd eB B2|g2 bg f2 af|efge fd d2|
ggbg ffaf|egfd edBd|ABde fedB|AGFE FD D2 ||
